assets/svgs/misc-grey/MiscGrey48.svg

<svg width="40" height="39" viewBox="0 0 40 39" fill="none" xmlns="http://www.w3.org/2000/svg">
<path fill-rule="evenodd" clip-rule="evenodd" d="M18.38 13.409C18.38 12.58 19.05 11.902 19.88 11.902C20.71 11.902 21.38 12.566 21.38 13.395V13.409C21.38 14.237 20.71 14.909 19.88 14.909C19.05 14.909 18.38 14.237 18.38 13.409ZM18.38 18.753C18.38 17.925 19.05 17.253 19.88 17.253C20.71 17.253 21.38 17.925 21.38 18.753V26.67C21.38 27.499 20.71 28.17 19.88 28.17C19.05 28.17 18.38 27.499 18.38 26.67V18.753ZM19.88 35.782C10.92 35.782 3.63 28.493 3.63 19.532C3.63 10.572 10.92 3.28201 19.88 3.28201C28.84 3.28201 36.13 10.572 36.13 19.532C36.13 28.493 28.84 35.782 19.88 35.782ZM19.88 0.282013C9.26 0.282013 0.630005 8.91801 0.630005 19.532C0.630005 30.146 9.26 38.782 19.88 38.782C30.49 38.782 39.13 30.146 39.13 19.532C39.13 8.91801 30.49 0.282013 19.88 0.282013Z" fill="#1A1919"/>
</svg>

<svg xmlns="http://www.w3.org/2000/svg" viewBox="0 0 40 39"><path fill-rule="evenodd" d="M18.38 13.409c0-.829.67-1.507 1.5-1.507s1.5.664 1.5 1.493v.014a1.5 1.5 0 11-3 0zm0 5.344a1.5 1.5 0 113 0v7.917c0 .829-.67 1.5-1.5 1.5s-1.5-.671-1.5-1.5v-7.917zm1.5 17.029c-8.96 0-16.25-7.289-16.25-16.25 0-8.96 7.29-16.25 16.25-16.25s16.25 7.29 16.25 16.25c0 8.961-7.29 16.25-16.25 16.25zm0-35.5C9.26.282.63 8.918.63 19.532s8.63 19.25 19.25 19.25c10.61 0 19.25-8.636 19.25-19.25S30.49.282 19.88.282z" clip-rule="evenodd"/></svg>
